X: 3717
T: Billy's Kitchen
R: polka
M: 2/4
K: Dmajor
d>c df|ed BA|d>e fd|gf ec|
d>c df|ed ef|gf df|ed BA|
d>c df|ed BA|d>e fd|gf a2|
b2 a2|g2 f2|ef gf|ed c/B/A||
B>c dB|AF AB|B>c df|ed c/B/A|
B>c dB|AF Ad|gf df|ed BA|
B>c dB|AF AB|B>c df|gf a2|
b2 a2|g2 f2|ef gf|ed c/B/A||

